X: 34764
T: Road To Mount Tinnie Run, The
R: jig
M: 6/8
K: Aminor
AcA dAe-|e2 g ^fed|ecd BcA|BAB AGE|
AcA dAe-|e2 g ^fed|age deg|1 edB A2 z:|2 edB A2 B||
BAG DGB|BAd BcA|cAd AeA|g^fd e2 B|
BAG DGB|BAd BcA|age deg|edB A2 B|
BAG DGB|BAd BcA|cAd AeA|g^fd e2 a|
aec Ace|fed ecA|Ace Ace|dBG A2||

